symbolic/22x22/apps/eclipse.svg

<svg xmlns="http://www.w3.org/2000/svg" width="22" height="22" version="1">
 <rect style="fill:#f7941e" width="20" height="19.998" x="-21" y="-20" rx="10" ry="9.999" transform="matrix(0,-1,-1,0,0,0)"/>
 <path style="opacity:0.1;fill:#ffffff" d="M 10.000142,1 C 4.460617,1 9.999e-4,5.46 9.999e-4,11 c 0,0.08386 -0.002,0.166645 0,0.25 C 0.1330886,5.827 4.54411,1.5 10.000142,1.5 c 5.455531,0 9.867152,4.3268 9.999141,9.75 0.002,-0.08335 0,-0.16614 0,-0.25 0,-5.54 -4.459617,-10 -9.999141,-10 z"/>
 <path style="opacity:0.2" d="M 0.005859,11.25 C 0.0038241,11.33343 0,11.416065 0,11.5 c 0,5.54 4.459617,10 9.999142,10 5.539524,0 9.999141,-4.46 9.999141,-10 0,-0.08394 -0.0038,-0.16657 -0.0059,-0.25 C 19.859935,16.673 15.454813,21 9.999282,21 4.54375,21 0.1381281,16.673 0.0061394,11.25 Z"/>
 <rect style="fill:#4c3a91" width="20" height="19.998" x="-21" y="-22" rx="10" ry="9.999" transform="matrix(0,-1,-1,0,0,0)"/>
 <path style="opacity:0.2" d="M 5.4628906 14 A 7 7 0 0 0 12 18.5 A 7 7 0 0 0 18.529297 14 L 5.4628906 14 z"/>
 <path style="fill:#6e5dae" d="M 5.6835938 14 A 7 7 0 0 0 12 18 A 7 7 0 0 0 18.314453 14 L 5.6835938 14 z"/>
 <path style="opacity:0.1;fill:#ffffff" d="M 11.99997,1 C 6.4604455,1 2.0008282,5.46 2.0008282,11 c 0,0.08386 -0.002,0.166645 0,0.25 C 2.1329169,5.827 6.543938,1.5 11.99997,1.5 c 5.455531,0 9.867152,4.3268 9.999141,9.75 0.002,-0.08335 0,-0.16614 0,-0.25 0,-5.54 -4.459617,-10 -9.999141,-10 z"/>
 <path style="opacity:0.2" d="m 11.999081,21.5 c -5.539032,0 -9.9982529,-4.46 -9.9982529,-10 0,-0.08386 -0.002,-0.166645 0,-0.25 C 2.133025,16.673 6.543884,21 11.999081,21 c 5.455196,0 9.866275,-4.3268 9.998253,-9.75 0.002,0.08335 0,0.16614 0,0.25 0,5.54 -4.459221,10 -9.998253,10 z"/>
 <path style="opacity:0.2" d="M 2.8320312,7.5 C 2.5558889,8.1350874 2.3395625,8.8035686 2.1992188,9.5 H 21.798828 c -0.140344,-0.6964314 -0.35667,-1.3649126 -0.632812,-2 z m -0.7832031,3 C 2.016459,10.828875 2,11.162335 2,11.5 c 0,0.337665 0.016459,0.671125 0.048828,1 h 19.845703 c 0.01944,0 0.03583,-0.0096 0.05469,-0.01172 0.03163,-0.32514 0.04883,-0.654564 0.04883,-0.988281 0,-0.333717 -0.0172,-0.663141 -0.04883,-0.988281 C 21.930366,10.50958 21.913975,10.5 21.894531,10.5 Z m 0.1503907,3 c 0.1403437,0.696431 0.3566701,1.364913 0.6328124,2 H 21.166016 c 0.276142,-0.635087 0.492468,-1.303569 0.632812,-2 z"/>
 <path style="fill:#ffffff" d="M 2.8320312,7 C 2.5558889,7.6350874 2.3395625,8.3035686 2.1992188,9 H 21.798828 C 21.658484,8.3035686 21.442158,7.6350874 21.166016,7 Z M 2.0488281,10 C 2.016459,10.328875 2,10.662335 2,11 c 0,0.337665 0.016459,0.671125 0.048828,1 h 19.845703 c 0.01944,0 0.03583,-0.0096 0.05469,-0.01172 0.03163,-0.32514 0.04883,-0.654564 0.04883,-0.988281 0,-0.333717 -0.0172,-0.663141 -0.04883,-0.988281 C 21.930366,10.00958 21.913975,10 21.894531,10 Z m 0.1503907,3 c 0.1403437,0.696431 0.3566701,1.364913 0.6328124,2 H 21.166016 c 0.276142,-0.635087 0.492468,-1.303569 0.632812,-2 z"/>
</svg>

<svg xmlns="http://www.w3.org/2000/svg" width="22" height="22" version="1"><rect style="fill:#f7941e" width="20" height="19.998" x="-21" y="-20" rx="10" ry="9.999" transform="matrix(0 -1 -1 0 0 0)"/><path style="opacity:.1;fill:#fff" d="M10 1C4.46 1 .001 5.46.001 11c0 .084-.002.167 0 .25a9.98 9.98 0 0 1 10-9.75 9.98 9.98 0 0 1 9.998 9.75c.002-.083 0-.166 0-.25C20 5.46 15.54 1 10 1z"/><path style="opacity:.2" d="M.006 11.25c-.002.083-.006.166-.006.25 0 5.54 4.46 10 10 10 5.539 0 9.998-4.46 9.998-10 0-.084-.004-.167-.006-.25A9.975 9.975 0 0 1 10 21a9.975 9.975 0 0 1-9.993-9.75z"/><rect style="fill:#4c3a91" width="20" height="19.998" x="-21" y="-22" rx="10" ry="9.999" transform="matrix(0 -1 -1 0 0 0)"/><path style="opacity:.2" d="M5.463 14A7 7 0 0 0 12 18.5a7 7 0 0 0 6.53-4.5H5.462z"/><path style="fill:#6e5dae" d="M5.684 14A7 7 0 0 0 12 18a7 7 0 0 0 6.314-4H5.684z"/><path style="opacity:.1;fill:#fff" d="M12 1C6.46 1 2 5.46 2 11v.25A9.98 9.98 0 0 1 12 1.5a9.98 9.98 0 0 1 10 9.75V11c0-5.54-4.46-10-10-10z"/><path style="opacity:.2" d="M12 21.5a9.977 9.977 0 0 1-10-10v-.25A9.98 9.98 0 0 0 12 21a9.98 9.98 0 0 0 9.997-9.75c.002.083 0 .166 0 .25 0 5.54-4.459 10-9.998 10z"/><path style="opacity:.2" d="M2.832 7.5a9.94 9.94 0 0 0-.633 2h19.6a9.94 9.94 0 0 0-.633-2zm-.783 3a10.205 10.205 0 0 0 0 2h19.846c.019 0 .035-.01.054-.012a10.2 10.2 0 0 0 0-1.976c-.019-.002-.035-.012-.054-.012zm.15 3a9.94 9.94 0 0 0 .633 2h18.334a9.94 9.94 0 0 0 .633-2z"/><path style="fill:#fff" d="M2.832 7a9.94 9.94 0 0 0-.633 2h19.6a9.94 9.94 0 0 0-.633-2zm-.783 3a10.205 10.205 0 0 0 0 2h19.846c.019 0 .035-.01.054-.012a10.2 10.2 0 0 0 0-1.976c-.019-.002-.035-.012-.054-.012zm.15 3a9.94 9.94 0 0 0 .633 2h18.334a9.94 9.94 0 0 0 .633-2z"/></svg>
